X: 896
T: Slipped Disk
C:Benny Goodman
B: jims roots
M:2/4
L:1/8
Q: 1/4=100
K:F
V:1 
d _dc |:S"G7"=Bdfa "C7"gec_B | "F"Aceg "F#"fcBA | "Gm"GBdf "C7"edBG | "F"Acz2 zd _dc |
"G7"=Bdfa "C7"gec_B | "F"Aceg "F#"fcBA | "Gm"GAB=B "C7"c_d=de | "F"fFz2 Ozf ed :|
"A7"_dcd=d egfe | "Dm"d_d=de fagf | "A7"e_e=ef gba_a | "Dm"a4 zd _dc |
"G"=Bdfa ged_e | "C"=egec AcBA | "G7"GAB=B e2G2 | [Ec][EB]ze zd !D.C.!_dc ||
% abcbook-tune_id 6298c2872e2b24daf06bf458


% abcbook-boost 0
% abcbook-tablature 
% abcbook-transpose 
% abcbook-lastupdated 1654178440488
% abcbook-soundfonts 
% abcbook-repeats 1


